packages/core/src/svgs/tokens/branded/PERP.svg

<svg width="24" height="24" viewBox="0 0 24 24" fill="none" xmlns="http://www.w3.org/2000/svg">
<path fill-rule="evenodd" clip-rule="evenodd" d="M11.0294 20.4693L2.8609 12.6292C2.17477 11.9069 1.52921 10.0759 2.47534 9.18914C2.73201 8.94858 3.16257 8.55025 3.68091 8.06858C5.01982 6.82633 6.94984 5.0352 8.01986 4.00185C9.01987 3.03795 10.251 2.7035 11.4393 3.77629C12.413 4.65936 13.3691 5.5616 14.3071 6.48243L12.0282 12.9326L9.86104 14.957L12.071 17.1215L11.0294 20.4693ZM5.42149 10.6542L9.9243 6.46966L12.0688 8.57191L7.61929 12.7998L5.42149 10.6542Z" fill="#3BEBAA"/>
<path fill-rule="evenodd" clip-rule="evenodd" d="M9.78369 10.7453L14.2255 15.0481L10.9727 18.1326C10.5799 18.5243 10.0304 19.5399 10.9727 20.4704C11.9143 21.401 13.0516 20.5649 13.5027 20.0304L21.2016 12.5986C21.7016 12.0187 22.6045 10.3131 21.4045 9.12803C20.2044 7.94302 18.5967 6.44689 17.9422 5.84688C17.3749 5.39299 15.8355 4.88464 14.2177 6.48355C12.5993 8.08191 10.5932 10.0008 9.78369 10.7453ZM14.2999 10.7465L16.5188 12.9204L18.72 10.8608L16.4311 8.69913L14.2999 10.7465Z" fill="#02BCE4"/>
<path d="M14.3044 10.7402L12.0422 12.8931L9.78223 10.7402L12.0427 8.59523L14.3044 10.7402Z" fill="#01A5E2"/>
</svg>

<svg xmlns="http://www.w3.org/2000/svg" width="24" height="24" fill="none" viewBox="0 0 24 24">
    <path fill="#3BEBAA" fill-rule="evenodd" d="m11.03 20.47-8.17-7.84c-.685-.723-1.33-2.554-.385-3.44.257-.241.688-.64 1.206-1.121C5.02 6.826 6.95 5.035 8.02 4.002c1-.964 2.231-1.298 3.42-.226q1.46 1.325 2.867 2.706l-2.279 6.45-2.167 2.025 2.21 2.165zm-5.61-9.817L9.924 6.47l2.145 2.102-4.45 4.228z" clip-rule="evenodd"/>
    <path fill="#02BCE4" fill-rule="evenodd" d="m9.784 10.745 4.442 4.303-3.253 3.085c-.393.391-.943 1.407 0 2.337.941.931 2.079.095 2.53-.44l7.699-7.431c.5-.58 1.402-2.286.202-3.471a151 151 0 0 0-3.462-3.281c-.567-.454-2.107-.962-3.724.637a224 224 0 0 1-4.434 4.261m4.516.002 2.219 2.173 2.201-2.06-2.289-2.16z" clip-rule="evenodd"/>
    <path fill="#01A5E2" d="m14.304 10.74-2.262 2.153-2.26-2.153 2.26-2.145z"/>
</svg>
